svg/nature/sunflower_line.svg

<svg xmlns="http://www.w3.org/2000/svg" width="24" height="24" viewBox="0 0 24 24"><g fill="none" fill-rule="evenodd"><path d="M24,0 L24,24 L0,24 L0,0 L24,0 Z M12.5935,23.2578 L12.5819,23.2595 L12.5109,23.295 L12.4919,23.2987 L12.4767,23.295 L12.4057,23.2595 C12.3958,23.2564 12.387,23.259 12.3821,23.2649 L12.378,23.2758 L12.3609,23.7031 L12.3659,23.7235 L12.3769,23.7357 L12.4805,23.8097 L12.4953,23.8136 L12.5071,23.8097 L12.6107,23.7357 L12.6233,23.7197 L12.6267,23.7031 L12.6096,23.2758 C12.6076,23.2657 12.601,23.2593 12.5935,23.2578 Z M12.8584,23.1453 L12.8445,23.1473 L12.6598,23.2397 L12.6499,23.2499 L12.6472,23.2611 L12.6651,23.6906 L12.6699,23.7034 L12.6784,23.7105 L12.8793,23.8032 C12.8914,23.8069 12.9022,23.803 12.9078,23.7952 L12.9118,23.7812 L12.8777,23.1665 C12.8753,23.1546 12.8674,23.147 12.8584,23.1453 Z M12.143,23.1473 C12.1332,23.1424 12.1222,23.1453 12.1156,23.1526 L12.1099,23.1665 L12.0758,23.7812 C12.0751,23.7927 12.0828,23.8019 12.0926,23.8046 L12.1083,23.8032 L12.3092,23.7105 L12.3186,23.7024 L12.3225,23.6906 L12.3404,23.2611 L12.3372,23.2485 L12.3278,23.2397 L12.143,23.1473 Z"/><path fill="#09244B" d="M12,2 C12.6195,2.01724 13.2676,2.54287 13.6925,2.9466 C14.1806,3.41029 14.6772,4.09268 14.8911,5.02025 C15.6982,4.51558 16.5319,4.38425 17.2049,4.40147 C17.7908,4.41646 18.6209,4.50299 19.0711,4.92893 C19.4969,5.37916 19.5835,6.20911 19.5985,6.79507 C19.6157,7.46805 19.4844,8.30177 18.9797,9.10889 C19.9073,9.32275 20.5897,9.8194 21.0534,10.3074 C21.4571,10.7324 21.9829,11.3805 22,12 C21.9828,12.6195 21.4571,13.2675 21.0534,13.6925 C20.5897,14.1806 19.9073,14.6772 18.9797,14.8911 C19.4844,15.6982 19.6158,16.5319 19.5985,17.2049 C19.5835,17.7908 19.497,18.6209 19.0711,19.0711 C18.6208,19.497 17.7909,19.5835 17.2049,19.5985 C16.532,19.6157 15.6982,19.4844 14.8911,18.9797 C14.6773,19.9073 14.1806,20.5897 13.6926,21.0534 C13.2679,21.4568 12.6192,21.9829 12,22 C11.3806,21.9828 10.7324,21.4571 10.3075,21.0534 C9.81944,20.5897 9.32276,19.9073 9.1089,18.9797 C8.30179,19.4844 7.46809,19.6158 6.79511,19.5985 C6.20922,19.5835 5.37907,19.497 4.92894,19.0711 C4.5028,18.6205 4.41651,17.7915 4.4015,17.2049 C4.38427,16.532 4.51558,15.6982 5.02026,14.8911 C4.09269,14.6773 3.41031,14.1806 2.94661,13.6926 C2.54292,13.2677 2.01712,12.6195 2,12 C2.01724,11.3805 2.54287,10.7324 2.9466,10.3075 C3.41029,9.81944 4.09267,9.32276 5.02025,9.1089 C4.51558,8.30179 4.38425,7.46809 4.40147,6.79511 C4.41646,6.20921 4.50299,5.37908 4.92893,4.92894 C5.37917,4.50307 6.2091,4.4165 6.79506,4.4015 C7.46805,4.38427 8.30177,4.51558 9.10889,5.02026 C9.32274,4.09269 9.81939,3.41031 10.3074,2.94661 C10.7328,2.54252 11.3801,2.01713 12,2 Z M12.5003,15.969 C12.1725,16.0099 11.8275,16.0099 11.4998,15.969 C11.2224,16.6088 11,17.2564 11,18 C11,19.002 11.5787,19.5669 12,19.8594 C12.4213,19.5669 13,19.0021 13,18 C13,17.2564 12.7776,16.6088 12.5003,15.969 Z M8.83998,14.4527 C8.19144,14.709 7.57614,15.0096 7.05025,15.5355 C6.3417,16.2441 6.35148,17.0527 6.44259,17.5574 C6.94733,17.6485 7.7559,17.6583 8.46447,16.9497 C8.99036,16.4239 9.29101,15.8086 9.5473,15.16 C9.2831,14.9547 9.04534,14.7169 8.83998,14.4527 Z M15.16,14.4527 C14.9547,14.7169 14.7169,14.9547 14.4527,15.16 C14.709,15.8086 15.0096,16.4239 15.5355,16.9497 C16.2441,17.6583 17.0527,17.6485 17.5574,17.5574 C17.6485,17.0527 17.6583,16.2441 16.9497,15.5355 C16.4239,15.0096 15.8086,14.709 15.16,14.4527 Z M12,10 C10.8954,10 10,10.8954 10,12 C10,13.1046 10.8954,14 12,14 C13.1046,14 14,13.1046 14,12 C14,10.8954 13.1046,10 12,10 Z M6,11 C4.99796,11 4.43311,11.5787 4.14062,12 C4.4331,12.4213 4.99793,13 6,13 C6.74363,13 7.39124,12.7776 8.03098,12.5003 C7.99009,12.1725 7.99009,11.8275 8.03098,11.4998 C7.39124,11.2224 6.74364,11 6,11 Z M18,11 C17.2564,11 16.6088,11.2224 15.969,11.4997 C16.0099,11.8275 16.0099,12.1725 15.969,12.5002 C16.6088,12.7776 17.2564,13 18,13 C19.002,13 19.5669,12.4213 19.8594,12 C19.5669,11.5787 19.0021,11 18,11 Z M8.46447,7.05025 C7.75591,6.3417 6.94732,6.35148 6.44256,6.44259 C6.35145,6.94733 6.34168,7.7559 7.05025,8.46447 C7.57614,8.99036 8.19143,9.29101 8.83998,9.54731 C9.04533,9.28311 9.2831,9.04534 9.5473,8.83998 C9.29101,8.19144 8.99036,7.57614 8.46447,7.05025 Z M17.5574,6.44256 C17.0527,6.35145 16.2441,6.34168 15.5355,7.05025 C15.0096,7.57614 14.709,8.19143 14.4527,8.83998 C14.7169,9.04534 14.9547,9.2831 15.16,9.5473 C15.8086,9.29101 16.4239,8.99036 16.9497,8.46447 C17.6583,7.75591 17.6485,6.94732 17.5574,6.44256 Z M12,4.14062 C11.5786,4.4331 11,4.99793 11,6 C11,6.74363 11.2224,7.39124 11.4997,8.03098 C11.8275,7.99009 12.1725,7.99009 12.5002,8.03098 C12.7776,7.39124 13,6.74364 13,6 C13,4.99796 12.4213,4.43311 12,4.14062 Z"/></g></svg>

<svg xmlns="http://www.w3.org/2000/svg" width="24" height="24"><g fill="none" fill-rule="evenodd"><path d="M24 0v24H0V0zM12.594 23.258l-.012.002-.071.035-.02.004-.014-.004-.071-.036c-.01-.003-.019 0-.024.006l-.004.01-.017.428.005.02.01.013.104.074.015.004.012-.004.104-.074.012-.016.004-.017-.017-.427c-.002-.01-.009-.017-.016-.018m.264-.113-.014.002-.184.093-.01.01-.003.011.018.43.005.012.008.008.201.092c.012.004.023 0 .029-.008l.004-.014-.034-.614c-.003-.012-.01-.02-.02-.022m-.715.002a.023.023 0 0 0-.027.006l-.006.014-.034.614c0 .012.007.02.017.024l.015-.002.201-.093.01-.008.003-.011.018-.43-.003-.012-.01-.01z"/><path fill="#09244B" d="M12 2c.62.017 1.268.543 1.693.947A4.134 4.134 0 0 1 14.89 5.02a4.134 4.134 0 0 1 2.314-.619c.586.015 1.416.102 1.866.528.426.45.512 1.28.527 1.866a4.134 4.134 0 0 1-.618 2.314c.927.214 1.61.71 2.073 1.198.404.425.93 1.073.947 1.693-.017.62-.543 1.268-.947 1.693a4.134 4.134 0 0 1-2.073 1.198c.504.807.636 1.64.619 2.314-.015.586-.102 1.416-.528 1.866-.45.426-1.28.512-1.866.527a4.134 4.134 0 0 1-2.314-.618 4.134 4.134 0 0 1-1.198 2.073c-.425.404-1.074.93-1.693.947-.62-.017-1.268-.543-1.693-.947A4.134 4.134 0 0 1 9.11 18.98a4.133 4.133 0 0 1-2.314.619c-.586-.015-1.416-.102-1.866-.528-.426-.45-.512-1.28-.527-1.866a4.134 4.134 0 0 1 .618-2.314 4.134 4.134 0 0 1-2.073-1.198C2.543 13.268 2.017 12.62 2 12c.017-.62.543-1.268.947-1.693A4.134 4.134 0 0 1 5.02 9.11a4.134 4.134 0 0 1-.619-2.314c.015-.586.102-1.416.528-1.866.45-.426 1.28-.513 1.866-.527a4.134 4.134 0 0 1 2.314.618c.214-.927.71-1.61 1.198-2.073.426-.404 1.073-.93 1.693-.947m.5 13.969c-.328.04-.672.04-1 0-.278.64-.5 1.287-.5 2.031 0 1.002.579 1.567 1 1.86.421-.293 1-.858 1-1.86 0-.744-.222-1.391-.5-2.031m-3.66-1.516c-.649.256-1.264.557-1.79 1.083-.708.708-.699 1.517-.607 2.021.504.091 1.313.101 2.021-.607.526-.526.827-1.141 1.083-1.79a4.022 4.022 0 0 1-.707-.707m6.32 0a4.02 4.02 0 0 1-.707.707c.256.649.557 1.264 1.083 1.79.708.708 1.517.698 2.021.607.091-.504.101-1.313-.607-2.021-.526-.526-1.141-.827-1.79-1.083M12 10a2 2 0 1 0 0 4 2 2 0 0 0 0-4m-6 1c-1.002 0-1.567.579-1.86 1 .293.421.858 1 1.86 1 .744 0 1.391-.222 2.031-.5a4.095 4.095 0 0 1 0-1C7.391 11.222 6.744 11 6 11m12 0c-.744 0-1.391.222-2.031.5.04.328.04.672 0 1 .64.278 1.287.5 2.031.5 1.002 0 1.567-.579 1.86-1-.293-.421-.858-1-1.86-1M8.464 7.05c-.708-.708-1.517-.699-2.021-.607-.092.504-.101 1.313.607 2.021.526.526 1.141.827 1.79 1.083.205-.264.443-.502.707-.707-.256-.649-.557-1.264-1.083-1.79m9.093-.607c-.504-.092-1.313-.101-2.021.607-.526.526-.827 1.141-1.083 1.79.264.205.502.443.707.707.649-.256 1.264-.557 1.79-1.083.708-.708.698-1.517.607-2.021M12 4.14c-.421.292-1 .857-1 1.859 0 .744.222 1.391.5 2.031.328-.04.672-.04 1 0 .278-.64.5-1.287.5-2.031 0-1.002-.579-1.567-1-1.86"/></g></svg>
